static/cards/FrenchDeck/default/card_spades_09.svg

<svg width="219" height="304" viewBox="0 0 219 304" fill="none" xmlns="http://www.w3.org/2000/svg">
<g filter="url(#filter0_d_18_635)">
<g clip-path="url(#clip0_18_635)">
<rect x="8" y="4" width="203" height="288" rx="10" fill="white"/>
<path d="M16.9517 39.936C16.9517 39.0352 17.5723 38.4546 18.4331 38.4546C18.9736 38.4546 19.394 38.6948 20.1348 39.4155C21.5962 40.8569 23.0776 41.5176 24.9194 41.5176C29.4438 41.5176 31.7461 37.3735 31.7461 30.1665H31.5659C30.5649 32.8691 28.0024 34.4907 24.7393 34.4907C19.6143 34.4907 16.0508 30.7271 16.0508 25.3218C16.0508 19.7563 19.8345 16.0527 25.52 16.0527C31.7861 16.0527 35.1294 20.9375 35.1294 30.0063C35.1294 39.5557 31.666 44.5205 24.9795 44.5205C22.7773 44.5205 20.6953 43.96 19.1338 42.939C17.7925 42.0581 16.9517 40.937 16.9517 39.936ZM31.1455 25.4019C31.1455 21.6582 28.7832 19.0957 25.3198 19.0957C21.8765 19.0957 19.5142 21.6582 19.5142 25.3818C19.5142 29.0254 21.8364 31.4678 25.3198 31.4678C28.8232 31.4678 31.1455 29.0454 31.1455 25.4019Z" fill="#211C1D"/>
<path d="M24.2375 72C24.0275 72 23.8572 71.8365 23.8572 71.6348C23.8572 71.2053 24.9342 68.3825 25.1943 66.4832C25.2256 66.2548 24.9357 66.1637 24.8047 66.3495C24.177 67.2399 23.5441 68.1922 21.8225 68.2149C18.615 68.2572 16.7672 65.2101 17.7761 62.4373C18.2708 61.0778 25.0754 52 26 52C26.9245 52 33.7292 61.0778 34.2239 62.4373C35.2328 65.2101 33.385 68.2572 30.1775 68.2149C28.4559 68.1922 27.823 67.2399 27.1953 66.3495C27.0643 66.1637 26.7744 66.2548 26.8057 66.4832C27.0658 68.3825 28.1428 71.2053 28.1428 71.6348C28.1428 71.8365 27.9725 72 27.7625 72H24.2375Z" fill="#211C1D"/>
<path d="M202.048 256.064C202.048 256.965 201.428 257.545 200.567 257.545C200.026 257.545 199.606 257.305 198.865 256.584C197.404 255.143 195.922 254.482 194.081 254.482C189.556 254.482 187.254 258.626 187.254 265.833L187.434 265.833C188.435 263.131 190.998 261.509 194.261 261.509C199.386 261.509 202.949 265.273 202.949 270.678C202.949 276.244 199.166 279.947 193.48 279.947C187.214 279.947 183.871 275.062 183.871 265.994C183.871 256.444 187.334 251.479 194.021 251.479C196.223 251.479 198.305 252.04 199.866 253.061C201.208 253.942 202.048 255.063 202.048 256.064ZM187.854 270.598C187.854 274.342 190.217 276.904 193.68 276.904C197.124 276.904 199.486 274.342 199.486 270.618C199.486 266.975 197.164 264.532 193.68 264.532C190.177 264.532 187.854 266.955 187.854 270.598Z" fill="#211C1D"/>
<path d="M194.762 224C194.973 224 195.143 224.164 195.143 224.365C195.143 224.795 194.066 227.617 193.806 229.517C193.774 229.745 194.064 229.836 194.195 229.65C194.823 228.76 195.456 227.808 197.178 227.785C200.385 227.743 202.233 230.79 201.224 233.563C200.729 234.922 193.925 244 193 244C192.075 244 185.271 234.922 184.776 233.563C183.767 230.79 185.615 227.743 188.823 227.785C190.544 227.808 191.177 228.76 191.805 229.65C191.936 229.836 192.226 229.745 192.194 229.517C191.934 227.617 190.857 224.795 190.857 224.365C190.857 224.164 191.027 224 191.238 224L194.762 224Z" fill="#211C1D"/>
<path d="M61.353 76C60.8588 76 60.4582 75.6076 60.4582 75.1235C60.4582 74.0926 62.9923 67.318 63.6043 62.7596C63.6779 62.2115 62.9958 61.993 62.6876 62.4389C61.2105 64.5759 59.7215 66.8613 55.6706 66.9157C48.1234 67.0172 43.7757 59.7041 46.1497 53.0496C47.3137 49.7867 63.3245 28 65.5 28C67.6754 28 83.6864 49.7867 84.8503 53.0496C87.2243 59.7041 82.8766 67.0172 75.3294 66.9157C71.2785 66.8613 69.7895 64.5759 68.3124 62.4389C68.0042 61.993 67.3221 62.2115 67.3957 62.7596C68.0077 67.318 70.5418 74.0926 70.5418 75.1235C70.5418 75.6076 70.1412 76 69.647 76H61.353Z" fill="#211C1D"/>
<path d="M61.353 156C60.8588 156 60.4582 156.392 60.4582 156.877C60.4582 157.907 62.9923 164.682 63.6043 169.24C63.6779 169.789 62.9958 170.007 62.6876 169.561C61.2105 167.424 59.7215 165.139 55.6706 165.084C48.1234 164.983 43.7757 172.296 46.1497 178.95C47.3137 182.213 63.3245 204 65.5 204C67.6754 204 83.6864 182.213 84.8503 178.95C87.2243 172.296 82.8766 164.983 75.3294 165.084C71.2785 165.139 69.7895 167.424 68.3124 169.561C68.0042 170.007 67.3221 169.789 67.3957 169.24C68.0077 164.682 70.5418 157.907 70.5418 156.877C70.5418 156.392 70.1412 156 69.647 156H61.353Z" fill="#211C1D"/>
<path d="M149.353 76C148.859 76 148.458 75.6076 148.458 75.1235C148.458 74.0926 150.992 67.318 151.604 62.7596C151.678 62.2115 150.996 61.993 150.688 62.4389C149.211 64.5759 147.721 66.8613 143.671 66.9157C136.123 67.0172 131.776 59.7041 134.15 53.0496C135.314 49.7867 151.325 28 153.5 28C155.675 28 171.686 49.7867 172.85 53.0496C175.224 59.7041 170.877 67.0172 163.329 66.9157C159.279 66.8613 157.789 64.5759 156.312 62.4389C156.004 61.993 155.322 62.2115 155.396 62.7596C156.008 67.318 158.542 74.0926 158.542 75.1235C158.542 75.6076 158.141 76 157.647 76H149.353Z" fill="#211C1D"/>
<path d="M61.353 140C60.8588 140 60.4582 139.608 60.4582 139.123C60.4582 138.093 62.9923 131.318 63.6043 126.76C63.6779 126.211 62.9958 125.993 62.6876 126.439C61.2105 128.576 59.7215 130.861 55.6706 130.916C48.1234 131.017 43.7757 123.704 46.1497 117.05C47.3137 113.787 63.3245 92 65.5 92C67.6754 92 83.6864 113.787 84.8503 117.05C87.2243 123.704 82.8766 131.017 75.3294 130.916C71.2785 130.861 69.7895 128.576 68.3124 126.439C68.0042 125.993 67.3221 126.211 67.3957 126.76C68.0077 131.318 70.5418 138.093 70.5418 139.123C70.5418 139.608 70.1412 140 69.647 140H61.353Z" fill="#211C1D"/>
<path d="M61.353 220C60.8588 220 60.4582 220.392 60.4582 220.877C60.4582 221.907 62.9923 228.682 63.6043 233.24C63.6779 233.789 62.9958 234.007 62.6876 233.561C61.2105 231.424 59.7215 229.139 55.6706 229.084C48.1234 228.983 43.7757 236.296 46.1497 242.95C47.3137 246.213 63.3245 268 65.5 268C67.6754 268 83.6864 246.213 84.8503 242.95C87.2243 236.296 82.8766 228.983 75.3294 229.084C71.2785 229.139 69.7895 231.424 68.3124 233.561C68.0042 234.007 67.3221 233.789 67.3957 233.24C68.0077 228.682 70.5418 221.907 70.5418 220.877C70.5418 220.392 70.1412 220 69.647 220H61.353Z" fill="#211C1D"/>
<path d="M149.353 140C148.859 140 148.458 139.608 148.458 139.123C148.458 138.093 150.992 131.318 151.604 126.76C151.678 126.211 150.996 125.993 150.688 126.439C149.211 128.576 147.721 130.861 143.671 130.916C136.123 131.017 131.776 123.704 134.15 117.05C135.314 113.787 151.325 92 153.5 92C155.675 92 171.686 113.787 172.85 117.05C175.224 123.704 170.877 131.017 163.329 130.916C159.279 130.861 157.789 128.576 156.312 126.439C156.004 125.993 155.322 126.211 155.396 126.76C156.008 131.318 158.542 138.093 158.542 139.123C158.542 139.608 158.141 140 157.647 140H149.353Z" fill="#211C1D"/>
<path d="M105.353 172C104.859 172 104.458 171.608 104.458 171.123C104.458 170.093 106.992 163.318 107.604 158.76C107.678 158.211 106.996 157.993 106.688 158.439C105.211 160.576 103.721 162.861 99.6706 162.916C92.1234 163.017 87.7757 155.704 90.1497 149.05C91.3137 145.787 107.325 124 109.5 124C111.675 124 127.686 145.787 128.85 149.05C131.224 155.704 126.877 163.017 119.329 162.916C115.279 162.861 113.789 160.576 112.312 158.439C112.004 157.993 111.322 158.211 111.396 158.76C112.008 163.318 114.542 170.093 114.542 171.123C114.542 171.608 114.141 172 113.647 172H105.353Z" fill="#211C1D"/>
<path d="M149.353 220C148.859 220 148.458 220.392 148.458 220.877C148.458 221.907 150.992 228.682 151.604 233.24C151.678 233.789 150.996 234.007 150.688 233.561C149.211 231.424 147.721 229.139 143.671 229.084C136.123 228.983 131.776 236.296 134.15 242.95C135.314 246.213 151.325 268 153.5 268C155.675 268 171.686 246.213 172.85 242.95C175.224 236.296 170.877 228.983 163.329 229.084C159.279 229.139 157.789 231.424 156.312 233.561C156.004 234.007 155.322 233.789 155.396 233.24C156.008 228.682 158.542 221.907 158.542 220.877C158.542 220.392 158.141 220 157.647 220H149.353Z" fill="#211C1D"/>
<path d="M149.353 156C148.859 156 148.458 156.392 148.458 156.877C148.458 157.907 150.992 164.682 151.604 169.24C151.678 169.789 150.996 170.007 150.688 169.561C149.211 167.424 147.721 165.139 143.671 165.084C136.123 164.983 131.776 172.296 134.15 178.95C135.314 182.213 151.325 204 153.5 204C155.675 204 171.686 182.213 172.85 178.95C175.224 172.296 170.877 164.983 163.329 165.084C159.279 165.139 157.789 167.424 156.312 169.561C156.004 170.007 155.322 169.789 155.396 169.24C156.008 164.682 158.542 157.907 158.542 156.877C158.542 156.392 158.141 156 157.647 156H149.353Z" fill="#211C1D"/>
</g>
</g>
<defs>
<filter id="filter0_d_18_635" x="0" y="0" width="219" height="304" filterUnits="userSpaceOnUse" color-interpolation-filters="sRGB">
<feFlood flood-opacity="0" result="BackgroundImageFix"/>
<feColorMatrix in="SourceAlpha" type="matrix" values="0 0 0 0 0 0 0 0 0 0 0 0 0 0 0 0 0 0 127 0" result="hardAlpha"/>
<feOffset dy="4"/>
<feGaussianBlur stdDeviation="4"/>
<feComposite in2="hardAlpha" operator="out"/>
<feColorMatrix type="matrix" values="0 0 0 0 0.614771 0 0 0 0 0.70094 0 0 0 0 0.806257 0 0 0 1 0"/>
<feBlend mode="normal" in2="BackgroundImageFix" result="effect1_dropShadow_18_635"/>
<feBlend mode="normal" in="SourceGraphic" in2="effect1_dropShadow_18_635" result="shape"/>
</filter>
<clipPath id="clip0_18_635">
<rect x="8" y="4" width="203" height="288" rx="10" fill="white"/>
</clipPath>
</defs>
</svg>

<svg xmlns="http://www.w3.org/2000/svg" width="219" height="304" fill="none" viewBox="0 0 219 304"><g filter="url(#a)"><g clip-path="url(#b)"><rect width="203" height="288" x="8" y="4" fill="#fff" rx="10"/><path fill="#211c1d" d="M16.952 39.936c0-.9.62-1.481 1.481-1.481.54 0 .961.24 1.702.96 1.461 1.442 2.943 2.103 4.784 2.103 4.525 0 6.827-4.145 6.827-11.352h-.18c-1.001 2.703-3.564 4.325-6.827 4.325-5.125 0-8.688-3.764-8.688-9.17 0-5.565 3.784-9.268 9.469-9.268 6.266 0 9.61 4.884 9.61 13.953 0 9.55-3.464 14.514-10.15 14.514-2.203 0-4.285-.56-5.846-1.581-1.341-.88-2.182-2.002-2.182-3.003m14.193-14.534c0-3.744-2.362-6.306-5.825-6.306-3.443 0-5.806 2.562-5.806 6.286 0 3.643 2.322 6.086 5.806 6.086 3.503 0 5.825-2.423 5.825-6.066M24.238 72a.373.373 0 0 1-.38-.365c0-.43 1.076-3.253 1.336-5.152.032-.228-.258-.32-.39-.133-.627.89-1.26 1.842-2.981 1.865-3.208.042-5.056-3.005-4.047-5.778C18.271 61.077 25.076 52 26 52s7.73 9.078 8.224 10.437c1.009 2.773-.839 5.82-4.046 5.778-1.722-.023-2.355-.975-2.983-1.865-.13-.186-.42-.095-.39.133.26 1.9 1.338 4.722 1.338 5.152 0 .201-.17.365-.38.365zM202.048 256.064c0 .901-.62 1.481-1.481 1.481-.541 0-.961-.24-1.702-.961-1.461-1.441-2.943-2.102-4.784-2.102-4.525 0-6.827 4.144-6.827 11.351h.18c1.001-2.702 3.564-4.324 6.827-4.324 5.125 0 8.688 3.764 8.688 9.169 0 5.566-3.783 9.269-9.469 9.269-6.266 0-9.609-4.885-9.609-13.953 0-9.55 3.463-14.515 10.15-14.515 2.202 0 4.284.561 5.845 1.582 1.342.881 2.182 2.002 2.182 3.003m-14.194 14.534c0 3.744 2.363 6.306 5.826 6.306 3.444 0 5.806-2.562 5.806-6.286 0-3.643-2.322-6.086-5.806-6.086-3.503 0-5.826 2.423-5.826 6.066M194.762 224c.211 0 .381.164.381.365 0 .43-1.077 3.252-1.337 5.152-.032.228.258.319.389.133.628-.89 1.261-1.842 2.983-1.865 3.207-.042 5.055 3.005 4.046 5.778C200.729 234.922 193.925 244 193 244s-7.729-9.078-8.224-10.437c-1.009-2.773.839-5.82 4.047-5.778 1.721.023 2.354.975 2.982 1.865.131.186.421.095.389-.133-.26-1.9-1.337-4.722-1.337-5.152 0-.201.17-.365.381-.365zM61.353 76a.886.886 0 0 1-.895-.876c0-1.031 2.534-7.806 3.146-12.364.074-.548-.608-.767-.916-.321-1.477 2.137-2.967 4.422-7.017 4.477-7.548.101-11.895-7.212-9.521-13.866C47.314 49.787 63.325 28 65.5 28s18.186 21.787 19.35 25.05c2.374 6.654-1.973 13.967-9.52 13.866-4.052-.055-5.54-2.34-7.018-4.477-.308-.446-.99-.227-.916.32.612 4.559 3.146 11.334 3.146 12.365 0 .484-.4.876-.895.876zM61.353 156a.886.886 0 0 0-.895.877c0 1.03 2.534 7.805 3.146 12.363.074.549-.608.767-.916.321-1.477-2.137-2.967-4.422-7.017-4.477-7.548-.101-11.895 7.212-9.521 13.866C47.314 182.213 63.325 204 65.5 204s18.186-21.787 19.35-25.05c2.374-6.654-1.973-13.967-9.52-13.866-4.052.055-5.54 2.34-7.018 4.477-.308.446-.99.228-.916-.321.612-4.558 3.146-11.333 3.146-12.363 0-.485-.4-.877-.895-.877zM149.353 76a.886.886 0 0 1-.895-.876c0-1.031 2.534-7.806 3.146-12.364.074-.548-.608-.767-.916-.321-1.477 2.137-2.967 4.422-7.017 4.477-7.548.101-11.895-7.212-9.521-13.866C135.314 49.787 151.325 28 153.5 28s18.186 21.787 19.35 25.05c2.374 6.654-1.973 13.967-9.521 13.866-4.05-.055-5.54-2.34-7.017-4.477-.308-.446-.99-.227-.916.32.612 4.559 3.146 11.334 3.146 12.365a.886.886 0 0 1-.895.876zM61.353 140a.886.886 0 0 1-.895-.877c0-1.03 2.534-7.805 3.146-12.363.074-.549-.608-.767-.916-.321-1.477 2.137-2.967 4.422-7.017 4.477-7.548.101-11.895-7.212-9.521-13.866C47.314 113.787 63.325 92 65.5 92s18.186 21.787 19.35 25.05c2.374 6.654-1.973 13.967-9.52 13.866-4.052-.055-5.54-2.34-7.018-4.477-.308-.446-.99-.228-.916.321.612 4.558 3.146 11.333 3.146 12.363 0 .485-.4.877-.895.877zM61.353 220a.886.886 0 0 0-.895.877c0 1.03 2.534 7.805 3.146 12.363.074.549-.608.767-.916.321-1.477-2.137-2.967-4.422-7.017-4.477-7.548-.101-11.895 7.212-9.521 13.866C47.314 246.213 63.325 268 65.5 268s18.186-21.787 19.35-25.05c2.374-6.654-1.973-13.967-9.52-13.866-4.052.055-5.54 2.34-7.018 4.477-.308.446-.99.228-.916-.321.612-4.558 3.146-11.333 3.146-12.363 0-.485-.4-.877-.895-.877zM149.353 140a.886.886 0 0 1-.895-.877c0-1.03 2.534-7.805 3.146-12.363.074-.549-.608-.767-.916-.321-1.477 2.137-2.967 4.422-7.017 4.477-7.548.101-11.895-7.212-9.521-13.866C135.314 113.787 151.325 92 153.5 92s18.186 21.787 19.35 25.05c2.374 6.654-1.973 13.967-9.521 13.866-4.05-.055-5.54-2.34-7.017-4.477-.308-.446-.99-.228-.916.321.612 4.558 3.146 11.333 3.146 12.363a.886.886 0 0 1-.895.877zM105.353 172a.886.886 0 0 1-.895-.877c0-1.03 2.534-7.805 3.146-12.363.074-.549-.608-.767-.916-.321-1.477 2.137-2.967 4.422-7.017 4.477-7.548.101-11.895-7.212-9.521-13.866 1.164-3.263 17.175-25.05 19.35-25.05s18.186 21.787 19.35 25.05c2.374 6.654-1.973 13.967-9.521 13.866-4.05-.055-5.54-2.34-7.017-4.477-.308-.446-.99-.228-.916.321.612 4.558 3.146 11.333 3.146 12.363a.886.886 0 0 1-.895.877zM149.353 220a.886.886 0 0 0-.895.877c0 1.03 2.534 7.805 3.146 12.363.074.549-.608.767-.916.321-1.477-2.137-2.967-4.422-7.017-4.477-7.548-.101-11.895 7.212-9.521 13.866 1.164 3.263 17.175 25.05 19.35 25.05s18.186-21.787 19.35-25.05c2.374-6.654-1.973-13.967-9.521-13.866-4.05.055-5.54 2.34-7.017 4.477-.308.446-.99.228-.916-.321.612-4.558 3.146-11.333 3.146-12.363a.886.886 0 0 0-.895-.877zM149.353 156a.886.886 0 0 0-.895.877c0 1.03 2.534 7.805 3.146 12.363.074.549-.608.767-.916.321-1.477-2.137-2.967-4.422-7.017-4.477-7.548-.101-11.895 7.212-9.521 13.866 1.164 3.263 17.175 25.05 19.35 25.05s18.186-21.787 19.35-25.05c2.374-6.654-1.973-13.967-9.521-13.866-4.05.055-5.54 2.34-7.017 4.477-.308.446-.99.228-.916-.321.612-4.558 3.146-11.333 3.146-12.363a.886.886 0 0 0-.895-.877z"/></g></g><defs><clipPath id="b"><rect width="203" height="288" x="8" y="4" fill="#fff" rx="10"/></clipPath><filter id="a" width="219" height="304" x="0" y="0" color-interpolation-filters="sRGB" filterUnits="userSpaceOnUse"><feFlood flood-opacity="0" result="BackgroundImageFix"/><feColorMatrix in="SourceAlpha" result="hardAlpha" values="0 0 0 0 0 0 0 0 0 0 0 0 0 0 0 0 0 0 127 0"/><feOffset dy="4"/><feGaussianBlur stdDeviation="4"/><feComposite in2="hardAlpha" operator="out"/><feColorMatrix values="0 0 0 0 0.614771 0 0 0 0 0.70094 0 0 0 0 0.806257 0 0 0 1 0"/><feBlend in2="BackgroundImageFix" result="effect1_dropShadow_18_635"/><feBlend in="SourceGraphic" in2="effect1_dropShadow_18_635" result="shape"/></filter></defs></svg>
